X:1
T:English Suite VI Courante
T:BWV 811
T:J. S. Bach
%%score { ( 1 3 4 ) | ( 2 5 ) }
L:1/8
Q:1/4=184
M:3/2
K:F
V:1 treble nm="Harp"
V:3 treble 
V:4 treble 
V:2 bass 
V:5 bass 
V:1
"^Presto" d | d3 c BA B2 A/4G/4A/4G/4A/4G/4A/4G/4 A/4G/4A/4G/4 G | e3 f fed^c d3 e | %3
 ^c2 =BA Bcde f/4e/4f/4e/4f/4e/4f/4e/4 f/4e/4f/4e/4 d/e/ | f3 e d2 c2 cBcA | B3 A G2 FE FAGF | %6
 E3 D C2 c2 BAGF | d3 _e d2 cB AG f2 | %8
 f/4e/4f/4e/4f/4e/4f/4e/4 f/4e/4f/4e/4 d cB A2 B/4A/4B/- B2 c | %9
 F/4E/4F/4E/4F/4E/4F/4E/4 F/4E/4F/4E/4 F GBAG A/4G/4A/4G/4A/4G/4A/4G/4 A/4G/4A/4G/4 F | %10
 F6 f2 fed^c | d/4^c/4d/- d2 e d2 =c=B ce d2 | %12
 e/4d/4e/- e2 E G^F A2 A/4G/4A/4G/4A/4G/4A/4G/4 A/4G/4A/4G/4 A/=B/ | %13
 c/4=B/4c/4B/4c/4B/4c/4B/4 c/4B/4c/4B/4 A/B/ cB d2 d/4^c/4d/4c/4d/4c/4d/4c/4 d/4c/4d/4c/4 d/e/ | %14
 f/4e/4f/4e/4f/4e/4f/4e/4 f/4e/4f/4e/4 d/e/ fe g2 g/4^f/4g/4f/4g/4f/4g/4f/4 g/4f/4g/4f/4 ^g/a/ | %15
 a/4^g/4a/4g/4a/4g/4a/4g/4 a/4g/4a/4g/4 ^f/g/ ade=f =B3 A | A6- A4- A d | %17
 d3 c BA B2 A/4G/4A/4G/4A/4G/4A/4G/4 A/4G/4A/4G/4 G | e3 f fed^c d3 e | %19
 ^c2 =BA Bcde f/4e/4f/4e/4f/4e/4f/4e/4 f/4e/4f/4e/4 d/e/ | f3 e d2 c2 cBcA | B3 A G2 FE FAGF | %22
 E3 D C2 c2 BAGF | d3 _e d2 cB AG f2 | %24
 f/4e/4f/4e/4f/4e/4f/4e/4 f/4e/4f/4e/4 d cB A2 B/4A/4B/- B2 c | %25
 F/4E/4F/4E/4F/4E/4F/4E/4 F/4E/4F/4E/4 F GBAG A/4G/4A/4G/4A/4G/4A/4G/4 A/4G/4A/4G/4 F | %26
 F6 f2 fed^c | d/4^c/4d/- d2 e d2 =c=B ce d2 | %28
 e/4d/4e/- e2 E G^F A2 A/4G/4A/4G/4A/4G/4A/4G/4 A/4G/4A/4G/4 A/=B/ | %29
 c/4=B/4c/4B/4c/4B/4c/4B/4 c/4B/4c/4B/4 A/B/ cB d2 d/4^c/4d/4c/4d/4c/4d/4c/4 d/4c/4d/4c/4 d/e/ | %30
 f/4e/4f/4e/4f/4e/4f/4e/4 f/4e/4f/4e/4 d/e/ fe g2 g/4^f/4g/4f/4g/4f/4g/4f/4 g/4f/4g/4f/4 ^g/a/ | %31
 a/4^g/4a/4g/4a/4g/4a/4g/4 a/4g/4a/4g/4 ^f/g/ ade=f =B3 A | A6- A4- A e | %33
 e3 f g2 g/4f/4g/4f/4e d^cde | f/4e/4f/- f2 e d2 b2 bag^f | %35
 g3 a ba c'2 b/4a/4b/4a/4b/4a/4b/4a/4 b/4a/4b/4a/4 g/a/ | %36
 b3 a g^fga b/4a/4b/4a/4b/4a/4b/4a/4 b/4a/4b/4a/4 g | g4- gaba gfef | %38
 f/4e/4f/4e/4f/4e/4f/4e/4 f/4e/4f/4e/4 d c2 c'2 bagf |{_e} d3 e fegf edcB | BAGF GABc d_efd | %41
 gf b2 e/4d/4e/4d/4e/4d/4e/4d/4 e/4d/4e/4d/4 c d/4c/4d/4c/4d/4c/4d/4c/4 d/4c/4d/4c/4 B | %42
 B6 d2 cBAB | cBAG g3 f ed^cd | ^ceA=B =cB d2 d/4^c/4d/4c/4d/4c/4d/4c/4 d/4c/4d/4c/4 d/e/ | %45
 f/4e/4f/4e/4f/4e/4f/4e/4 f/4e/4f/4e/4 d/e/ fe g2 g/4^f/4g/4f/4g/4f/4g/4f/4 g/4f/4g/4f/4 g/a/ | %46
 b/4a/4b/4a/4b/4a/4b/4a/4 b/4a/4b/4a/4 g/a/ bagf ed^cd | %47
 GBA^c d2 e/4d/4c/4d/4e f/4e/4f/4e/4f/4e/4f/4e/4 f/4e/4f/4e/4 d | d6- d4- d e | %49
 e3 f g2 g/4f/4g/4f/4e d^cde | f/4e/4f/- f2 e d2 b2 bag^f | %51
 g3 a ba c'2 b/4a/4b/4a/4b/4a/4b/4a/4 b/4a/4b/4a/4 g/a/ | %52
 b3 a g^fga b/4a/4b/4a/4b/4a/4b/4a/4 b/4a/4b/4a/4 g | g4- gaba gfef | %54
 f/4e/4f/4e/4f/4e/4f/4e/4 f/4e/4f/4e/4 d c2 c'2 bagf |{_e} d3 e fegf edcB | BAGF GABc d_efd | %57
 gf b2 e/4d/4e/4d/4e/4d/4e/4d/4 e/4d/4e/4d/4 c d/4c/4d/4c/4d/4c/4d/4c/4 d/4c/4d/4c/4 B | %58
 B6 d2 cBAB | cBAG g3 f ed^cd | ^ceA=B =cB d2 d/4^c/4d/4c/4d/4c/4d/4c/4 d/4c/4d/4c/4 d/e/ | %61
 f/4e/4f/4e/4f/4e/4f/4e/4 f/4e/4f/4e/4 d/e/ fe g2 g/4^f/4g/4f/4g/4f/4g/4f/4 g/4f/4g/4f/4 g/a/ | %62
 b/4a/4b/4a/4b/4a/4b/4a/4 b/4a/4b/4a/4 g/a/ bagf ed^cd | %63
 GBA^c d2 e/4d/4c/4d/4e f/4e/4f/4e/4f/4e/4f/4e/4 f/4e/4f/4e/4 d | d6- d4- d z |] %65
V:2
 z | DD,E,^F, G,F,G,A, B,G,A,B, | ^C,A,F,D, G,2 G,,A,, B,,A,,B,,G,, | %3
 A,,A,G,E, F,E,F,D, ^C,E,A,,C, | D,^C,D,E, F,G,E,G, ^F,D,E,F, | G,^F,G,A, B,CDC =B,A,B,G, | %6
 CDCB, A,G,F,E, F,2 G,A, | B,F,D,F, B,,C,D,E, F,G,A,B, | CG,C,D, E,G,F,_E, D,C,B,,A,, | %9
 G,,F,,E,,D,, C,,2 F,,2 C,2 C,,2 | F,,2 A,G, F,E,D,D G,A,B,A, | G,^F,E,D, C,=B,,A,,G,, A,,C,B,,D, | %12
 C,E,D,C, =B,,A,,B,,C, D,E,F,E, | D,C,D,E, A,,E,F,G, A,G,B,A, | G,F,G,A, D,A,=B,C DECE | %15
 DFED C=B,CD E2 E,2 | A,4 E,2 A,4- A, z | DD,E,^F, G,F,G,A, B,G,A,B, | %18
 ^C,A,F,D, G,2 G,,A,, B,,A,,B,,G,, | A,,A,G,E, F,E,F,D, ^C,E,A,,C, | D,^C,D,E, F,G,E,G, ^F,D,E,F, | %21
 G,^F,G,A, B,CDC =B,A,B,G, | CDCB, A,G,F,E, F,2 G,A, | B,F,D,F, B,,C,D,E, F,G,A,B, | %24
 CG,C,D, E,G,F,_E, D,C,B,,A,, | G,,F,,E,,D,, C,,2 F,,2 C,2 C,,2 | F,,2 A,G, F,E,D,D G,A,B,A, | %27
 G,^F,E,D, C,=B,,A,,G,, A,,C,B,,D, | C,E,D,C, =B,,A,,B,,C, D,E,F,E, | D,C,D,E, A,,E,F,G, A,G,B,A, | %30
 G,F,G,A, D,A,=B,C DECE | DFED C=B,CD E2 E,2 | A,4 E,2 A,4- A, z | A,,A,G,F, E,^C,D,E, A,,G,F,E, | %34
 D,A,DC B,A,G,B, CB,CD |[I:staff -1] _ED=E^F GFGA GFED | G[I:staff +1]G,A,B, CD_EC D2 D,2 | %37
 G,A,B,A, G,F,E,F, B,,2 D,2 | C,G,CB, A,CB,A, G,F,G,A, | B,F,B,,C, D,2 _E,F, G,2 E,2 | %40
 F,4- F,_E,D,C, B,,_A,,G,,F,, | _E,,_E,D,C, B,,D,G,E, F,2 F,,2 | %42
 B,,D,C,B,, A,,G,,^F,,E,, F,,2 D,2 | G,2- G,A, B,CB,A, G,F,G,E, | A,3 G, ^F,D,E,=F, G,A,B,A, | %45
 G,F,G,A, D,A,B,C DC_ED | CB,CD G,A,B,A, G,F,E,D, | ^C,2 D,E, F,E,F,G, A,2 A,,2 | %48
 D,4 A,,2 D,4- D, z | A,,A,G,F, E,^C,D,E, A,,G,F,E, | D,A,DC B,A,G,B, CB,CD | %51
[I:staff -1] _ED=E^F GFGA GFED | G[I:staff +1]G,A,B, CD_EC D2 D,2 | G,A,B,A, G,F,E,F, B,,2 D,2 | %54
 C,G,CB, A,CB,A, G,F,G,A, | B,F,B,,C, D,2 _E,F, G,2 E,2 | F,4- F,_E,D,C, B,,_A,,G,,F,, | %57
 _E,,_E,D,C, B,,D,G,E, F,2 F,,2 | B,,D,C,B,, A,,G,,^F,,E,, F,,2 D,2 | G,2- G,A, B,CB,A, G,F,G,E, | %60
 A,3 G, ^F,D,E,=F, G,A,B,A, | G,F,G,A, D,A,B,C DC_ED | CB,CD G,A,B,A, G,F,E,D, | %63
 ^C,2 D,E, F,E,F,G, A,2 A,,2 | D,4 A,,2 D,4- D, z |] %65
V:3
 x | F3 z z8 | x12 | x12 | x12 | x12 | x12 | x12 | x12 | z8 E4 | A,6 z6 | x12 | x12 | x12 | x12 | %15
 x12 | z6 ^C4- C z | F3 z z8 | x12 | x12 | x12 | x12 | x12 | x12 | x12 | z8 E4 | A,6 z6 | x12 | %28
 x12 | x12 | x12 | x12 | z6 ^C4- C x | A3 z z8 | x12 | x12 | z8 ^f4 | B4 z8 | x12 | x12 | x12 | %41
 x12 | D6 z2 z4 | x12 | x12 | x12 | x12 | z8 ^c4 | z6 F4- F z | A3 z z8 | x12 | x12 | z8 ^f4 | %53
 B4 z8 | x12 | x12 | x12 | x12 | D6 z2 z4 | x12 | x12 | x12 | x12 | z8 ^c4 | z6 F4- F x |] %65
V:4
 x | A3 z z8 | x12 | x12 | x12 | x12 | x12 | x12 | x12 | x12 | C6 z6 | x12 | x12 | x12 | x12 | %15
 x12 | z6 E4- E z | A3 z z8 | x12 | x12 | x12 | x12 | x12 | x12 | x12 | x12 | C6 z6 | x12 | x12 | %29
 x12 | x12 | x12 | z6 E4- E x | ^c3 z z8 | x12 | x12 | x12 | d4 z8 | x12 | x12 | x12 | x12 | %42
 F6 z2 z4 | x12 | x12 | x12 | x12 | x12 | z6 A4- A z | ^c3 z z8 | x12 | x12 | x12 | d4 z8 | x12 | %55
 x12 | x12 | x12 | F6 z2 z4 | x12 | x12 | x12 | x12 | x12 | z6 A4- A x |] %65
V:5
 x | x12 | x12 | x12 | x12 | x12 | x12 | x12 | x12 | x12 | x12 | x12 | x12 | x12 | x12 | x12 | %16
 z2 A,,4- A,,4- A,, z | x12 | x12 | x12 | x12 | x12 | x12 | x12 | x12 | x12 | x12 | x12 | x12 | %29
 x12 | x12 | x12 | z2 A,,4- A,,4- A,, x | x12 | x12 | x12 | x12 | x12 | x12 | x12 | x12 | x12 | %42
 x12 | x12 | x12 | x12 | x12 | x12 | z2 D,,4- D,,4- D,, z | x12 | x12 | x12 | x12 | x12 | x12 | %55
 x12 | x12 | x12 | x12 | x12 | x12 | x12 | x12 | x12 | z2 D,,4- D,,4- D,, x |] %65

